X: 17348
T: High Clouds
R: waltz
M: 3/4
K: Gmajor
D2|G3F GA|Bd3 D2|E4 ED|EG3 FE|
D2 G2 A2|Bd3 c2|B3 A G2|A4 D2|
G3F GA|Bd3 D2|E4 ED|EG3 FE|
D2 G2 A2|Bd3 c2|B3 G A2|G4 Bc|
d3B GD|EG3 E2|D3E DC|B,4 Bc|
d2 B3A|G2 F2 G2|A4-AB|A4 Bc|
d3B GD|EG3 E2|D3E DC|B,2 C2 D2|
E3F GB|A4 G2|G6-|G4||

